web/themes/custom/surf_main/images/icons/ui-icon-thumbs-up.svg

<svg fill="none" height="28" viewBox="0 0 28 28" width="28" xmlns="http://www.w3.org/2000/svg"><g stroke="#222" stroke-width="1.5"><path d="m10.3398 11.7265h-3.71644v11.2056l3.71644 2.4777h10.0943c1.354 0 2.5402-.907 2.8951-2.2137l2.0868-7.6833c.5181-1.9077-.9183-3.7863-2.8951-3.7863h-5.987l1.3613-5.12168c.4798-1.43951-1.1291-3.38709-1.1291-3.38709h-2.3145z"/><path d="m1.55556 10.7129v14.19"/></g></svg>

<svg width="28" height="28" viewBox="0 0 28 28" fill="none" xmlns="http://www.w3.org/2000/svg">
<path d="M10.3398 11.7265H6.62336V22.9321L10.3398 25.4098H20.4341C21.7881 25.4098 22.9743 24.5028 23.3292 23.1961L25.416 15.5128C25.9341 13.6051 24.4977 11.7265 22.5209 11.7265H16.5339L17.8952 6.60482C18.375 5.16531 16.7661 3.21773 16.7661 3.21773H14.4516L10.3398 11.7265Z" stroke="#222222" stroke-width="1.5"/>
<path d="M1.55556 10.7129V24.9029" stroke="#222222" stroke-width="1.5"/>
</svg>
